;START_OF_HEADER
;HEADER_VERSION:0.1
;FLAVOR:Griffin
;GENERATOR.NAME:Cura_SteamEngine
;GENERATOR.VERSION:master
;GENERATOR.BUILD_DATE:2021-05-26
;TARGET_MACHINE.NAME:Ultimaker 3 Extended
;EXTRUDER_TRAIN.0.INITIAL_TEMPERATURE:275
;EXTRUDER_TRAIN.0.MATERIAL.VOLUME_USED:42689
;EXTRUDER_TRAIN.0.MATERIAL.GUID:98c05714-bf4e-4455-ba27-57d74fe331e4
;EXTRUDER_TRAIN.0.NOZZLE.DIAMETER:0.4
;EXTRUDER_TRAIN.0.NOZZLE.NAME:AA 0.4
;BUILD_PLATE.TYPE:glass
;BUILD_PLATE.INITIAL_TEMPERATURE:112
;PRINT.TIME:34870
;PRINT.GROUPS:1
;PRINT.SIZE.MIN.X:9
;PRINT.SIZE.MIN.Y:3.31
;PRINT.SIZE.MIN.Z:0.324
;PRINT.SIZE.MAX.X:213.891
;PRINT.SIZE.MAX.Y:154.204
;PRINT.SIZE.MAX.Z:7.844
;END_OF_HEADER
;ZOFFSETPROCESSED
;Generated with Cura_SteamEngine master
T0
M82 ;absolute extrusion mode

G92 E0
M109 S275
G0 F7200 X9 Y6 Z2
G280
G1 F2100 E-8
;LAYER_COUNT:48
;LAYER:-8
M107
M204 S5000
M205 X30 Y30
G0 F7200 X59.281 Y10.951 Z0.524 ;adjusted by z offset
M204 S4000
M205 X25 Y25
;TYPE:SUPPORT-INTERFACE
G1 F900 E0
G1 F1350 X59.341 Y10.851 E0.00474
G1 X59.831 Y10.069 E0.04223
G1 X59.929 Y9.925 E0.04931
G1 X60.463 Y9.197 E0.08599
G1 X60.575 Y9.055 E0.09334
G1 X61.149 Y8.383 E0.12925
G1 X61.263 Y8.26 E0.13607
G1 X61.903 Y7.612 E0.17307
G1 X62.005 Y7.516 E0.17876
G1 X62.713 Y6.896 E0.217
G1 X62.805 Y6.822 E0.2218
G1 X63.545 Y6.265 E0.25943
G1 X63.67 Y6.178 E0.26562
G1 X64.665 Y5.548 E0.31347
G1 X64.837 Y5.446 E0.32159
G1 X65.672 Y5.01 E0.35987
G1 X65.836 Y4.931 E0.36726
G1 X66.661 Y4.573 E0.4038
G1 X66.802 Y4.518 E0.40995
G1 X67.663 Y4.217 E0.44701
G1 X67.829 Y4.165 E0.45408
G1 X68.687 Y3.934 E0.49018
G1 X68.86 Y3.894 E0.4974
G1 X69.758 Y3.72 E0.53456
G1 X69.885 Y3.7 E0.53978
G1 X70.778 Y3.596 E0.57631
G1 X70.968 Y3.581 E0.58406
G1 X72.026 Y3.538 E0.62708
G1 X72.114 Y3.536 E0.63066
G1 X141.929 Y3.537 E3.4673
G1 X142.93 Y3.573 E3.50799
G1 X143.053 Y3.582 E3.513
G1 X143.97 Y3.684 E3.55049
G1 X144.145 Y3.709 E3.55767
G1 X145.034 Y3.873 E3.59441
G1 X145.157 Y3.901 E3.59953
G1 X146.051 Y4.135 E3.63708
G1 X146.214 Y4.184 E3.64399
G1 X147.056 Y4.47 E3.68012
G1 X147.222 Y4.534 E3.68735
G1 X148.037 Y4.879 E3.72331
G1 X148.194 Y4.952 E3.73035
G1 X149.144 Y5.446 E3.77385
G1 X149.299 Y5.536 E3.78114
G1 X150.105 Y6.036 E3.81967
G1 X150.237 Y6.125 E3.82614
G1 X150.942 Y6.637 E3.86154
G1 X151.102 Y6.762 E3.86979
G1 X151.777 Y7.332 E3.90569
G1 X151.913 Y7.456 E3.91317
G1 X152.554 Y8.082 E3.94957
G1 X152.667 Y8.201 E3.95624
G1 X153.25 Y8.863 E3.99208
G1 X153.38 Y9.022 E4.00042
G1 X153.898 Y9.703 E4.03519
G1 X154.014 Y9.868 E4.04338
G1 X154.635 Y10.841 E4.09028
G1 X154.716 Y10.975 E4.09665
G1 X158.411 Y17.375 E4.39691
G1 X158.782 Y17.934 E4.42417
G1 X159.229 Y18.45 E4.45191
G1 X159.737 Y18.905 E4.47962
G1 X160.3 Y19.294 E4.50742
G1 X160.906 Y19.607 E4.53513
G1 X161.546 Y19.842 E4.56284
G1 X162.213 Y19.995 E4.59064
G1 X162.892 Y20.062 E4.61836
G1 X163.575 Y20.042 E4.64612
G1 X164.249 Y19.937 E4.67384
G1 X164.905 Y19.747 E4.70159
G1 X165.532 Y19.477 E4.72933
G1 X166.12 Y19.129 E4.75709
G1 X166.659 Y18.71 E4.78483
G1 X167.121 Y18.246 E4.81143
G1 X167.131 Y18.254 E4.81195
G1 X167.534 Y17.73 E4.83881
G1 X168.112 Y17.037 E4.87548
G1 X168.208 Y16.929 E4.88135
G1 X168.69 Y16.417 E4.90992
G1 X168.815 Y16.292 E4.9171
G1 X169.549 Y15.609 E4.95784
G1 X169.688 Y15.49 E4.96527
G1 X170.379 Y14.936 E5.00126
G1 X170.518 Y14.832 E5.00831
G1 X171.233 Y14.34 E5.04358
G1 X171.417 Y14.223 E5.05243
G1 X172.173 Y13.78 E5.08804
G1 X172.315 Y13.703 E5.0946
G1 X173.147 Y13.294 E5.13227
G1 X173.26 Y13.244 E5.13729
G1 X174.115 Y12.899 E5.17475
G1 X174.282 Y12.839 E5.18196
G1 X175.121 Y12.57 E5.21776
G1 X175.285 Y12.524 E5.22468
G1 X176.157 Y12.312 E5.26114
G1 X176.319 Y12.279 E5.26786
G1 X177.212 Y12.131 E5.30464
G1 X177.389 Y12.108 E5.31189
G1 X178.283 Y12.025 E5.34837
G1 X178.894 Y12.004 E5.37321
G1 X179.79 Y11.9 E5.40986
G1 X179.978 Y11.862 E5.41765
G1 X180.885 Y11.712 E5.455
G1 X181.062 Y11.689 E5.46226
G1 X181.956 Y11.606 E5.49874
G1 X182.098 Y11.599 E5.50451
G1 X182.839 Y11.578 E5.53463
G1 X183.592 Y11.579 E5.56523
G1 X184.593 Y11.615 E5.60593
G1 X184.716 Y11.624 E5.61094
G1 X185.633 Y11.726 E5.64843
G1 X185.808 Y11.751 E5.65561
G1 X186.679 Y11.912 E5.6916
G1 X187.252 Y12.056 E5.7156
G1 X187.911 Y12.184 E5.74288
G1 X188.594 Y12.229 E5.77069
G1 X188.63 Y12.229 E5.77215
G1 X189.297 Y12.187 E5.79931
G1 X189.876 Y12.08 E5.82323
G1 X190.689 Y11.884 E5.85721
G1 X190.825 Y11.856 E5.86285
G1 X191.726 Y11.707 E5.89996
G1 X191.903 Y11.684 E5.90721
G1 X192.797 Y11.601 E5.94369
G1 X192.939 Y11.594 E5.94947
G1 X193.68 Y11.573 E5.97958
G1 X194.431 Y11.574 E6.0101
G1 X195.43 Y11.61 E6.05072
G1 X195.566 Y11.62 E6.05626
G1 X196.17 Y11.686 E6.08094
G1 X196.835 Y11.716 E6.10799
G1 X197.45 Y11.68 E6.13302
G1 X198.194 Y11.659 E6.16326
G1 X198.946 Y11.66 E6.19382
G1 X199.947 Y11.696 E6.23451
G1 X200.07 Y11.705 E6.23952
G1 X200.987 Y11.807 E6.27701
G1 X201.162 Y11.832 E6.2842
G1 X202.051 Y11.996 E6.32093
G1 X202.174 Y12.024 E6.32605
G1 X203.068 Y12.258 E6.3636
G1 X203.231 Y12.307 E6.37051
G1 X204.073 Y12.593 E6.40665
G1 X204.239 Y12.657 E6.41387
G1 X205.042 Y12.998 E6.44932
G1 X205.231 Y13.086 E6.45779
G1 X206.025 Y13.494 E6.49406
G1 X206.142 Y13.561 E6.49954
G1 X206.921 Y14.035 E6.53659
G1 X207.072 Y14.135 E6.54395
G1 X207.786 Y14.646 E6.57962
G1 X207.934 Y14.759 E6.58719
G1 X208.626 Y15.336 E6.6238
G1 X208.734 Y15.432 E6.62967
G1 X209.246 Y15.914 E6.65824
G1 X209.408 Y16.077 E6.66758
G1 X210.054 Y16.773 E6.70616
G1 X210.173 Y16.912 E6.71359
G1 X210.727 Y17.603 E6.74958
G1 X210.831 Y17.742 E6.75663
G1 X211.323 Y18.457 E6.7919
G1 X211.44 Y18.641 E6.80076
G1 X211.883 Y19.397 E6.83636
G1 X211.96 Y19.539 E6.84292
G1 X212.363 Y20.358 E6.88001
G1 X212.419 Y20.484 E6.88561
G1 X212.761 Y21.329 E6.92265
G1 X212.82 Y21.494 E6.92977
G1 X213.092 Y22.341 E6.96592
G1 X213.138 Y22.503 E6.97276
G1 X213.35 Y23.377 E7.0093
G1 X213.383 Y23.535 E7.01586
G1 X213.531 Y24.427 E7.0526
G1 X213.555 Y24.613 E7.06022
G1 X213.637 Y25.497 E7.09629
G1 X213.645 Y25.649 E7.10247
G1 X213.666 Y26.382 E7.13227
G1 X213.666 Y126.122 E11.18478
G1 X213.63 Y127.128 E11.22568
G1 X213.62 Y127.263 E11.23118
G1 X213.518 Y128.18 E11.26867
G1 X213.493 Y128.355 E11.27585
G1 X213.331 Y129.233 E11.31213
G1 X213.301 Y129.367 E11.31771
G1 X213.07 Y130.252 E11.35487
G1 X213.018 Y130.424 E11.36217
G1 X212.732 Y131.266 E11.3983
G1 X212.668 Y131.432 E11.40553
G1 X212.327 Y132.235 E11.44098
G1 X212.246 Y132.41 E11.44881
G1 X211.831 Y133.218 E11.48572
G1 X211.764 Y133.335 E11.4912
G1 X211.29 Y134.114 E11.52825
G1 X211.19 Y134.265 E11.53561
G1 X210.679 Y134.979 E11.57128
G1 X210.572 Y135.119 E11.57844
G1 X209.989 Y135.819 E11.61546
G1 X209.893 Y135.927 E11.62133
G1 X209.411 Y136.439 E11.6499
G1 X209.248 Y136.601 E11.65924
G1 X208.551 Y137.248 E11.69788
G1 X208.417 Y137.363 E11.70505
G1 X207.722 Y137.92 E11.74124
G1 X207.583 Y138.024 E11.74829
G1 X206.868 Y138.516 E11.78356
G1 X206.684 Y138.633 E11.79242
G1 X205.928 Y139.076 E11.82802
G1 X205.786 Y139.153 E11.83458
G1 X204.958 Y139.56 E11.87207
G1 X204.841 Y139.612 E11.87727
G1 X203.986 Y139.957 E11.91473
G1 X203.823 Y140.015 E11.92176
G1 X202.98 Y140.286 E11.95774
G1 X202.816 Y140.332 E11.96466
G1 X201.944 Y140.544 E12.00112
G1 X201.782 Y140.577 E12.00784
G1 X200.889 Y140.725 E12.04462
G1 X200.712 Y140.748 E12.05187
G1 X199.818 Y140.831 E12.08835
G1 X199.676 Y140.838 E12.09413
G1 X198.935 Y140.859 E12.12425
G1 X198.182 Y140.858 E12.15484
G1 X197.172 Y140.822 E12.1959
G1 X196.502 Y140.84 E12.22314
G1 X195.83 Y140.944 E12.25077
G1 X195.347 Y141.074 E12.27109
G1 X194.928 Y141.203 E12.2889
G1 X194.05 Y141.416 E12.32561
G1 X193.888 Y141.449 E12.33233
G1 X192.995 Y141.597 E12.36911
G1 X192.818 Y141.62 E12.37636
G1 X191.924 Y141.703 E12.41284
G1 X191.782 Y141.71 E12.41861
G1 X191.041 Y141.731 E12.44873
G1 X190.288 Y141.73 E12.47933
G1 X189.287 Y141.694 E12.52003
G1 X189.164 Y141.685 E12.52504
G1 X188.247 Y141.583 E12.56253
G1 X187.63 Y141.477 E12.58796
G1 X186.781 Y141.391 E12.62263
G1 X186.678 Y141.389 E12.62682
G1 X185.678 Y141.353 E12.66748
G1 X185.555 Y141.344 E12.67249
G1 X184.638 Y141.242 E12.70998
G1 X184.462 Y141.217 E12.7172
G1 X183.714 Y141.078 E12.74811
G1 X183.049 Y140.999 E12.77532
G1 X182.37 Y141.003 E12.80291
G1 X181.87 Y141.062 E12.82337
G1 X181.684 Y141.086 E12.83099
G1 X180.79 Y141.169 E12.86747
G1 X180.648 Y141.176 E12.87324
G1 X179.907 Y141.197 E12.90336
G1 X179.156 Y141.196 E12.93388
G1 X178.155 Y141.16 E12.97457
G1 X178.032 Y141.151 E12.97958
G1 X177.115 Y141.049 E13.01707
G1 X176.94 Y141.024 E13.02426
G1 X176.051 Y140.86 E13.06099
G1 X175.928 Y140.832 E13.06611
G1 X175.034 Y140.598 E13.10366
G1 X174.871 Y140.549 E13.11057
G1 X174.029 Y140.263 E13.1467
G1 X173.863 Y140.199 E13.15393
G1 X173.06 Y139.858 E13.18938
G1 X172.871 Y139.77 E13.19785
G1 X172.077 Y139.362 E13.23412
G1 X171.96 Y139.295 E13.2396
G1 X171.181 Y138.821 E13.27665
G1 X171.03 Y138.721 E13.28401
G1 X170.316 Y138.21 E13.31968
G1 X170.168 Y138.097 E13.32725
G1 X169.476 Y137.52 E13.36386
G1 X169.368 Y137.424 E13.36973
G1 X168.856 Y136.942 E13.3983
G1 X168.517 Y136.588 E13.41821
G1 X168.031 Y136.127 E13.44543
G1 X167.481 Y135.724 E13.47313
G1 X166.884 Y135.392 E13.50089
G1 X166.25 Y135.139 E13.52863
G1 X165.589 Y134.968 E13.55637
G1 X164.911 Y134.882 E13.58413
G1 X164.228 Y134.882 E13.61189
G1 X163.55 Y134.968 E13.63965
G1 X162.889 Y135.139 E13.6674
G1 X162.255 Y135.392 E13.69513
G1 X161.658 Y135.722 E13.72285
G1 X161.107 Y136.126 E13.75061
G1 X160.612 Y136.596 E13.77834
G1 X160.182 Y137.123 E13.80598
G1 X159.898 Y137.563 E13.82725
G1 X154.715 Y146.542 E14.2485
G1 X154.642 Y146.664 E14.25427
G1 X154.152 Y147.447 E14.2918
G1 X154.057 Y147.588 E14.29871
G1 X153.525 Y148.312 E14.33522
G1 X153.407 Y148.46 E14.34291
G1 X152.843 Y149.122 E14.37824
G1 X152.715 Y149.262 E14.38595
G1 X152.091 Y149.893 E14.42201
G1 X151.978 Y149.999 E14.4283
G1 X151.27 Y150.619 E14.46654
G1 X151.179 Y150.692 E14.47128
G1 X150.438 Y151.25 E14.50897
G1 X150.313 Y151.337 E14.51516
G1 X149.318 Y151.967 E14.56301
G1 X149.146 Y152.069 E14.57113
G1 X148.311 Y152.505 E14.6094
G1 X148.152 Y152.582 E14.61658
G1 X147.322 Y152.942 E14.65334
G1 X147.181 Y152.997 E14.65949
G1 X146.32 Y153.298 E14.69655
G1 X146.153 Y153.35 E14.70366
G1 X145.296 Y153.581 E14.73972
G1 X145.123 Y153.621 E14.74693
G1 X144.225 Y153.795 E14.7841
G1 X144.098 Y153.815 E14.78932
G1 X143.205 Y153.919 E14.82585
G1 X143.015 Y153.934 E14.8336
G1 X141.957 Y153.977 E14.87662
G1 X141.87 Y153.979 E14.88015
G1 X72.054 Y153.978 E17.71683
G1 X71.053 Y153.942 E17.75753
G1 X70.93 Y153.933 E17.76254
G1 X70.013 Y153.831 E17.80003
G1 X69.838 Y153.806 E17.80721
G1 X68.949 Y153.642 E17.84394
G1 X68.826 Y153.614 E17.84907
G1 X67.933 Y153.38 E17.88658
G1 X67.766 Y153.33 E17.89366
G1 X66.927 Y153.045 E17.92966
G1 X66.761 Y152.981 E17.93689
G1 X65.944 Y152.635 E17.97294
G1 X65.789 Y152.563 E17.97989
G1 X64.839 Y152.069 E18.02339
G1 X64.679 Y151.976 E18.03091
G1 X63.878 Y151.479 E18.06921
G1 X63.746 Y151.39 E18.07568
G1 X63.017 Y150.86 E18.1123
G1 X62.881 Y150.753 E18.11933
G1 X62.206 Y150.183 E18.15523
G1 X62.07 Y150.059 E18.16271
G1 X61.429 Y149.433 E18.19911
G1 X61.307 Y149.304 E18.20632
G1 X60.733 Y148.652 E18.24162
G1 X60.603 Y148.493 E18.24996
G1 X60.081 Y147.807 E18.28499
G1 X59.97 Y147.648 E18.29287
G1 X59.343 Y146.666 E18.34021
G1 X59.275 Y146.554 E18.34553
G1 X24.404 Y86.154 E21.17926
G1 X23.916 Y85.234 E21.22157
G1 X23.844 Y85.085 E21.2283
G1 X23.492 Y84.283 E21.26388
G1 X23.419 Y84.099 E21.27193
G1 X23.124 Y83.266 E21.30783
G1 X23.072 Y83.098 E21.31498
G1 X22.837 Y82.243 E21.35101
G1 X22.797 Y82.076 E21.35798
G1 X22.622 Y81.186 E21.39484
G1 X22.599 Y81.041 E21.4008
G1 X22.49 Y80.148 E21.43735
G1 X22.475 Y79.965 E21.44481
G1 X22.429 Y78.882 E21.48886
G1 X22.425 Y78.715 E21.49565
G1 X22.461 Y77.709 E21.53655
G1 X22.471 Y77.574 E21.54205
G1 X22.573 Y76.657 E21.57953
G1 X22.598 Y76.482 E21.58672
G1 X22.76 Y75.604 E21.62299
G1 X22.79 Y75.47 E21.62857
G1 X23.021 Y74.585 E21.66574
G1 X23.073 Y74.413 E21.67304
G1 X23.359 Y73.571 E21.70917
G1 X23.423 Y73.405 E21.7164
G1 X23.759 Y72.611 E21.75143
G1 X23.853 Y72.411 E21.7604
G1 X24.356 Y71.449 E21.80451
G1 X24.416 Y71.34 E21.80957
G1 X59.281 Y10.951 E24.64279
M204 S5000
M205 X30 Y30
G1 F2100 E16.64279
G0 F7200 X93.871 Y61.402
M204 S4000
M205 X25 Y25
G1 F900 E24.64279
G1 F1350 X85.403 Y76.068 E25.33088
G1 X85.105 Y76.668 E25.3581
G1 X84.882 Y77.314 E25.38587
G1 X84.741 Y77.981 E25.41357
G1 X84.686 Y78.662 E25.44132
G1 X84.718 Y79.345 E25.46911
G1 X84.834 Y80.017 E25.49681
G1 X85.036 Y80.673 E25.5247
G1 X85.402 Y81.443 E25.55934
G1 X93.869 Y96.109 E26.24741
G1 X94.24 Y96.667 E26.27464
G1 X94.687 Y97.183 E26.30237
G1 X95.195 Y97.639 E26.33011
G1 X95.757 Y98.028 E26.35788
G1 X96.364 Y98.341 E26.38563
G1 X97.004 Y98.576 E26.41333
G1 X97.673 Y98.729 E26.44122
G1 X98.523 Y98.798 E26.47587
G1 X115.456 Y98.798 E27.16387
G1 X116.124 Y98.756 E27.19106
G1 X116.795 Y98.627 E27.21882
G1 X117.444 Y98.414 E27.24658
G1 X118.061 Y98.122 E27.27431
G1 X118.636 Y97.754 E27.30205
G1 X119.16 Y97.316 E27.3298
G1 X119.627 Y96.813 E27.35769
G1 X120.111 Y96.112 E27.3923
G1 X128.579 Y81.446 E28.08039
G1 X128.877 Y80.846 E28.10761
G1 X129.1 Y80.2 E28.13537
G1 X129.241 Y79.533 E28.16307
G1 X129.296 Y78.852 E28.19083
G1 X129.264 Y78.169 E28.21861
G1 X129.148 Y77.497 E28.24632
G1 X128.946 Y76.841 E28.27421
G1 X128.58 Y76.071 E28.30885
G1 X120.113 Y61.405 E28.99692
G1 X119.742 Y60.847 E29.02414
G1 X119.295 Y60.331 E29.05188
G1 X118.787 Y59.875 E29.07962
G1 X118.225 Y59.486 E29.10739
G1 X117.618 Y59.173 E29.13514
G1 X116.978 Y58.938 E29.16284
G1 X116.309 Y58.785 E29.19072
G1 X115.459 Y58.716 E29.22537
G1 X98.526 Y58.716 E29.91337
G1 X97.858 Y58.758 E29.94057
G1 X97.187 Y58.887 E29.96833
G1 X96.538 Y59.1 E29.99608
G1 X95.921 Y59.392 E30.02382
G1 X95.346 Y59.76 E30.05156
G1 X94.822 Y60.198 E30.07931
G1 X94.355 Y60.701 E30.10719
G1 X93.871 Y61.402 E30.14181
M204 S5000
M205 X30 Y30
G0 F7200 X94.4 Y60.653
M204 S4000
M205 X25 Y25
G1 F1350 X94.4 Y3.537 E32.46247
M204 S5000
M205 X30 Y30
G0 F7200 X92.8 Y3.537
M204 S4000
M205 X25 Y25
G1 F1350 X92.8 Y63.257 E34.88895
M204 S5000
M205 X30 Y30
G0 F7200 X91.2 Y66.028
M204 S4000
M205 X25 Y25
G1 F1350 X91.2 Y3.537 E37.42801
M204 S5000
M205 X30 Y30
G0 F7200 X89.6 Y3.537
M204 S4000
M205 X25 Y25
G1 F1350 X89.6 Y68.8 E40.07969
M204 S5000
M205 X30 Y30
G0 F7200 X88 Y71.571
M204 S4000
M205 X25 Y25
G1 F1350 X88 Y3.537 E42.84397
M204 S5000
M205 X30 Y30
G0 F7200 X86.4 Y3.537
M204 S4000
M205 X25 Y25
G1 F1350 X86.4 Y74.342 E45.72083
M204 S5000
M205 X30 Y30
G0 F7200 X84.8 Y77.702
M204 S4000
M205 X25 Y25
G1 F1350 X84.8 Y3.537 E48.73422
M204 S5000
M205 X30 Y30
G0 F7200 X83.2 Y3.537
M204 S4000
M205 X25 Y25
G1 F1350 X83.2 Y153.978 E54.84675
M204 S5000
M205 X30 Y30
G0 F7200 X81.6 Y153.978
M204 S4000
M205 X25 Y25
G1 F1350 X81.6 Y3.537 E60.95929
M204 S5000
M205 X30 Y30
G0 F7200 X80 Y3.537
M204 S4000
M205 X25 Y25
G1 F1350 X80 Y153.978 E67.07183
M204 S5000
M205 X30 Y30
G0 F7200 X78.4 Y153.978
M204 S4000
M205 X25 Y25
G1 F1350 X78.4 Y3.537 E73.18437
M204 S5000
M205 X30 Y30
G0 F7200 X76.8 Y3.537
M204 S4000
M205 X25 Y25
G1 F1350 X76.8 Y153.978 E79.29691
M204 S5000
M205 X30 Y30
G0 F7200 X75.2 Y153.978
M204 S4000
M205 X25 Y25
G1 F1350 X75.2 Y3.537 E85.40945
M204 S5000
M205 X30 Y30
G0 F7200 X73.6 Y3.537
M204 S4000
M205 X25 Y25
G1 F1350 X73.6 Y153.978 E91.52199
M204 S5000
M205 X30 Y30
G0 F7200 X72 Y153.976
M204 S4000
M205 X25 Y25
G1 F1350 X72 Y3.539 E97.63436
M204 S5000
M205 X30 Y30
G0 F7200 X70.4 Y3.64
M204 S4000
M205 X25 Y25
G1 F1350 X70.4 Y153.874 E103.73849
M204 S5000
M205 X30 Y30
G0 F7200 X68.8 Y153.607
M204 S4000
M205 X25 Y25
G1 F1350 X68.8 Y3.907 E109.82092
M204 S5000
M205 X30 Y30
G0 F7200 X67.2 Y4.378
M204 S4000
M205 X25 Y25
G1 F1350 X67.2 Y153.137 E115.86512
M204 S5000
M205 X30 Y30
G0 F7200 X65.6 Y152.464
M204 S4000
M205 X25 Y25
G1 F1350 X65.6 Y5.047 E121.85479
M204 S5000
M205 X30 Y30
G0 F7200 X64 Y5.969
M204 S4000
M205 X25 Y25
G1 F1350 X64 Y151.554 E127.77002
M204 S5000
M205 X30 Y30
G0 F7200 X62.4 Y150.346
M204 S4000
M205 X25 Y25
G1 F1350 X62.4 Y7.17 E133.58738
M204 S5000
M205 X30 Y30
